X: 719
T: Ey Mutrib-i Zevk Âşinâ
C: Rahmi Bey
O: Turkey
F: http://compmusic.upf.edu/node/140
N: kurdilihicazkar--sarki--yuruksemai_ii--ey_mutrib-i--rahmi_bey
N: makam= kurdilihicazkar
N: form= sarki
N: usul= yuruksemai_ii = 6/8
M: 6/8
L: 1/16
K: C _B _e _A 
Q: 1/4=156
%%MIDI tuningsystem comma53
g2f2 g2=a2 f3_3/4e  | d6d2 e2=e2  | f2_2/4e2 f2g2 _e3d  | \
w:  ARANAĞME  |   |   | 
c8 z2B2  | d4 B2A3GF2  | 
w:   |   | 
G2A2 B2c2 d2e2  | d2c2 B2B2 A2{B}AG  | G12  | \
w:   |   |   | 
g2f2 g2=a2 f3_3/4e  | d6d2 e2=e2  | 
w:  ARANAĞME  |   | 
f2_2/4e2 f2g2 _e3d  | c8 z2B2  | d4 B2A3GF2  | \
w:   |   |   | 
G2A2 B2c2 d2e2  | d2c2 B2B2 A2{B}AG  | 
w:   |   | 
G6g6  | f4 g2g4_2/4a2  | b2{c'}b2 _2/4a2g2 f2_3/4e2  | \
w:   |  Ey  *  mut  |  rıb_ *  *  *  ı   | 
f2_3/4e2 d2e4f2  | g2{=a}g2 f2_3/4e3dc2  | 
w:  zevk_ *  *  â şi  |  nâ    | 
f4 g2g4_2/4a2  | b2{c'}b2 _2/4a2g2 f2_3/4e2  | \
w:  Ey  *  mut  |  rıb_ *  *  *  ı   | 
f2_3/4e2 d2e4f2  | g8-g2z2  | g4 f2f4e2  | 
w:  zevk_ *  *  â şi  |  nâ    |  Bir  *  şar kı   | 
e2{f}e2 d2d2 {e}d2c2  | B2c2 d2g2 f2e2  | \
w:  yap  |  tım  *  *  ben  *  sa  | 
d2c2 {e}dcc6  | c2d2 B2A3GF2  | 
w:  na    |  Çal  *  *  söy *  le   | 
G2A2 B2c2 d2e2  | d2c2 B2B2 A2AG  | G12  | \
w:  eğ  |  len  *  *  dâ *  i  |  mâ    | 
g4 f2f4e2  | e2{f}e2 d2d2 {e}d2c2  | 
w:  Bir  *  şar kı   |  yap  | 
B2c2 d2g2 f2e2  | d2c2 {e}dcc6  | c2d2 B2A3GF2  | \
w:  tım  *  *  ben  *  sa  |  na    |  Çal  *  *  söy *  le   | 
G2A2 B2c2 d2e2  | 
w:  eğ  | 
d2c2 B2B2 A2AG  | G6c'6  | c'6_1/4b4_7/8a2  | \
w:  len  *  *  dâ *  i  |  mâ   SAZ  |  Ref târ_ ı   | 
g6^f6  | g6_7/8a4_1/4b2  | c'3_1/4b _7/8a2g3^f_7/8e2  | 
w:  tarz_  |  ı  nev  e  |  dâ    | 
_7/8e4 d2e4^f2  | g6_7/8a4g2  | d'2c'2 _1/4b2b2 _7/8a2ag  | \
w:  Ref *  târ_ ı   |  tarz_  |  ı  *  *  nev  *  e  | 
g6c'6  | c'6_1/4b4_7/8a2  | g6^f6  | 
w:  dâ   SAZ  |  Ref târ_ ı   |  tarz_  | 
g6_7/8a4_1/4b2  | c'3_1/4b _7/8a2g3^f_7/8e2  | \
w:  ı  nev  e  |  dâ    | 
_7/8e4 d2e4^f2  | g6_7/8a4g2  | d'2c'2 _1/4b2b2 _7/8a2ag  | 
w:  Ref *  târ_ ı   |  tarz_  |  ı  *  *  nev  *  e  | 
g12  | g4 f2f4e2  | e2{f}e2 d2d2 {e}d2c2  | \
w:  dâ    |  Bir  *  şar kı   |  yap  | 
B2c2 d2g2 f2e2  | d2c2 {e}dcc6  | 
w:  tım  *  *  ben  *  sa  |  na    | 
c2d2 B2A3GF2  | G2A2 B2c2 d2e2  | d2c2 B2B2 A2AG  | G12  | \
w:  Çal  *  *  söy *  le   |  eğ  |  len  *  *  dâ *  i  |  mâ    | 
g4 f2f4e2  | 
w:  Bir  *  şar kı   | 
e2{f}e2 d2d2 {e}d2c2  | B2c2 d2g2 f2e2  | \
w:  yap  |  tım  *  *  ben  *  sa  | 
d2c2 {e}dcc6  | c2d2 B2A3GF2  | 
w:  na    |  Çal  *  *  söy *  le   | 
G2A2 B2c2 d2e2  | d2c2 B2B2 A2AG  | G6|
w:  eğ  |  len  *  *  dâ *  i  |  mâ    | 


